Newaita-dark/actions/32/view-calendar-birthday.svg

<svg height="32" viewBox="0 0 32 32" width="32" xmlns="http://www.w3.org/2000/svg"><g fill="#e0e0e0"><path d="m2.644531 19.433594v7.277344c0 1.464843 1.183594 2.644531 2.648438 2.644531h21.167969c1.464843 0 2.644531-1.179688 2.644531-2.644531v-7.277344h-2.644531v5.953125c0 .734375-.589844 1.324219-1.324219 1.324219h-18.523438c-.730469 0-1.320312-.589844-1.320312-1.324219v-5.953125zm0 0"/><path d="m16.128906 14.332031c-4.070312 0-8.214844.851563-12.632812 2.550781-.507813.195313-.84375.683594-.84375 1.226563v1.984375c-.007813.476562.242187.917969.652344 1.160156.410156.238282.917968.238282 1.328124 0 .410157-.242187.660157-.683594.652344-1.160156v-1.0625c7.691406-2.789062 14.09375-2.789062 21.183594-.023438v1.085938c-.007812.476562.242188.917969.652344 1.160156.410156.238282.917968.238282 1.328125 0 .410156-.242187.660156-.683594.652343-1.160156 0-.992188 0-.660156 0-1.984375 0-.53125-.320312-1.007813-.8125-1.214844-4.101562-1.707031-8.089843-2.558593-12.160156-2.5625zm0 0"/><path d="m15.214844 12.15625h1.324218c.363282 0 .660157.296875.660157.664062v3.304688c0 .367188-.296875.664062-.660157.664062h-1.324218c-.363282 0-.660156-.296874-.660156-.664062v-3.304688c0-.367187.296874-.664062.660156-.664062zm0 0"/><path d="m15.875 2.871094c-2.679688 3.03125-2.488281 7.058594-.214844 7.953125.445313.148437.902344-.183594.902344-.652344-.023438-1.984375 1.296875-1.984375 1.296875-3.96875 0-.992187-.992187-2.976563-1.984375-3.332031zm0 0"/><path d="m7.441406 20.566406c-1.492187 0-2.855468.589844-3.957031 1.691406-.179687.171876-.25.425782-.1875.664063.0625.242187.25.429687.492187.492187.238282.0625.492188-.007812.664063-.1875.886719-.882812 1.835937-1.289062 2.988281-1.289062s2.527344.441406 4.113282 1.390625c1.6875 1.015625 2.96875 1.589844 4.320312 1.589844 1.355469 0 2.636719-.574219 4.324219-1.589844 1.582031-.949219 2.960937-1.390625 4.113281-1.390625 1.148438 0 2.101562.40625 2.988281 1.289062.171875.179688.425781.25.664063.1875.242187-.0625.429687-.25.492187-.492187.0625-.238281-.011719-.492187-.1875-.664063-1.101562-1.101562-2.464843-1.691406-3.957031-1.691406-1.496094 0-3.097656.554688-4.820312 1.585938-1.617188.972656-2.652344 1.390625-3.617188 1.390625-.960938 0-1.996094-.417969-3.613281-1.390625-1.722657-1.03125-3.324219-1.585938-4.820313-1.585938zm0 0"/><path d="m7.9375 12.820312h1.324219c.363281 0 .660156.292969.660156.660157v3.308593c0 .363282-.296875.660157-.660156.660157h-1.324219c-.363281 0-.660156-.296875-.660156-.660157v-3.308593c0-.367188.296875-.660157.660156-.660157zm0 0"/><path d="m22.492188 12.820312h1.324218c.363282 0 .660156.292969.660156.660157v3.308593c0 .363282-.296874.660157-.660156.660157h-1.324218c-.367188 0-.660157-.296875-.660157-.660157v-3.308593c0-.367188.292969-.660157.660157-.660157zm0 0"/><path d="m8.601562 3.558594c-2.683593 3.03125-2.488281 7.054687-.21875 7.949218.445313.148438.90625-.179687.90625-.648437-.027343-1.984375 1.296876-1.984375 1.296876-3.96875 0-.992187-.992188-2.976563-1.984376-3.332031zm0 0"/><path d="m23.152344 3.558594c-2.679688 3.03125-2.484375 7.054687-.214844 7.949218.445312.148438.902344-.179687.902344-.648437-.023438-1.984375 1.300781-1.984375 1.300781-3.96875 0-.992187-.992187-2.976563-1.988281-3.332031zm0 0"/><path d="m23.152344 3.558594c-2.679688 3.03125-2.484375 7.054687-.214844 7.949218.445312.148438.902344-.179687.902344-.648437-.023438-1.984375 1.300781-1.984375 1.300781-3.96875 0-.992187-.992187-2.976563-1.988281-3.332031zm0 0"/></g></svg>

<?xml version="1.0" encoding="UTF-8"?>
<svg xmlns="http://www.w3.org/2000/svg" xmlns:xlink="http://www.w3.org/1999/xlink" width="32px" height="32px" viewBox="0 0 32 32" version="1.1">
<g id="surface1">
<path style=" stroke:none;fill-rule:nonzero;fill:rgb(87.843138%,87.843138%,87.843138%);fill-opacity:1;" d="M 2.644531 19.433594 L 2.644531 26.710938 C 2.644531 28.175781 3.828125 29.355469 5.292969 29.355469 L 26.460938 29.355469 C 27.925781 29.355469 29.105469 28.175781 29.105469 26.710938 L 29.105469 19.433594 L 26.460938 19.433594 L 26.460938 25.386719 C 26.460938 26.121094 25.871094 26.710938 25.136719 26.710938 L 6.613281 26.710938 C 5.882812 26.710938 5.292969 26.121094 5.292969 25.386719 L 5.292969 19.433594 Z M 2.644531 19.433594 "/>
<path style=" stroke:none;fill-rule:nonzero;fill:rgb(87.843138%,87.843138%,87.843138%);fill-opacity:1;" d="M 16.128906 14.332031 C 12.058594 14.332031 7.914062 15.183594 3.496094 16.882812 C 2.988281 17.078125 2.652344 17.566406 2.652344 18.109375 L 2.652344 20.09375 C 2.644531 20.570312 2.894531 21.011719 3.304688 21.253906 C 3.714844 21.492188 4.222656 21.492188 4.632812 21.253906 C 5.042969 21.011719 5.292969 20.570312 5.285156 20.09375 L 5.285156 19.03125 C 12.976562 16.242188 19.378906 16.242188 26.46875 19.007812 C 26.46875 19.246094 26.46875 19.550781 26.46875 20.09375 C 26.460938 20.570312 26.710938 21.011719 27.121094 21.253906 C 27.53125 21.492188 28.039062 21.492188 28.449219 21.253906 C 28.859375 21.011719 29.109375 20.570312 29.101562 20.09375 C 29.101562 19.101562 29.101562 19.433594 29.101562 18.109375 C 29.101562 17.578125 28.78125 17.101562 28.289062 16.894531 C 24.1875 15.1875 20.199219 14.335938 16.128906 14.332031 Z M 16.128906 14.332031 "/>
<path style=" stroke:none;fill-rule:nonzero;fill:rgb(87.843138%,87.843138%,87.843138%);fill-opacity:1;" d="M 15.214844 12.15625 L 16.539062 12.15625 C 16.902344 12.15625 17.199219 12.453125 17.199219 12.820312 L 17.199219 16.125 C 17.199219 16.492188 16.902344 16.789062 16.539062 16.789062 L 15.214844 16.789062 C 14.851562 16.789062 14.554688 16.492188 14.554688 16.125 L 14.554688 12.820312 C 14.554688 12.453125 14.851562 12.15625 15.214844 12.15625 Z M 15.214844 12.15625 "/>
<path style=" stroke:none;fill-rule:nonzero;fill:rgb(87.843138%,87.843138%,87.843138%);fill-opacity:1;" d="M 15.875 2.871094 C 13.195312 5.902344 13.386719 9.929688 15.660156 10.824219 C 16.105469 10.972656 16.5625 10.640625 16.5625 10.171875 C 16.539062 8.1875 17.859375 8.1875 17.859375 6.203125 C 17.859375 5.210938 16.867188 3.226562 15.875 2.871094 Z M 15.875 2.871094 "/>
<path style=" stroke:none;fill-rule:nonzero;fill:rgb(87.843138%,87.843138%,87.843138%);fill-opacity:1;" d="M 7.441406 20.566406 C 5.949219 20.566406 4.585938 21.15625 3.484375 22.257812 C 3.304688 22.429688 3.234375 22.683594 3.296875 22.921875 C 3.359375 23.164062 3.546875 23.351562 3.789062 23.414062 C 4.027344 23.476562 4.28125 23.40625 4.453125 23.226562 C 5.339844 22.34375 6.289062 21.9375 7.441406 21.9375 C 8.59375 21.9375 9.96875 22.378906 11.554688 23.328125 C 13.242188 24.34375 14.523438 24.917969 15.875 24.917969 C 17.230469 24.917969 18.511719 24.34375 20.199219 23.328125 C 21.78125 22.378906 23.160156 21.9375 24.3125 21.9375 C 25.460938 21.9375 26.414062 22.34375 27.300781 23.226562 C 27.472656 23.40625 27.726562 23.476562 27.964844 23.414062 C 28.207031 23.351562 28.394531 23.164062 28.457031 22.921875 C 28.519531 22.683594 28.445312 22.429688 28.269531 22.257812 C 27.167969 21.15625 25.804688 20.566406 24.3125 20.566406 C 22.816406 20.566406 21.214844 21.121094 19.492188 22.152344 C 17.875 23.125 16.839844 23.542969 15.875 23.542969 C 14.914062 23.542969 13.878906 23.125 12.261719 22.152344 C 10.539062 21.121094 8.9375 20.566406 7.441406 20.566406 Z M 7.441406 20.566406 "/>
<path style=" stroke:none;fill-rule:nonzero;fill:rgb(87.843138%,87.843138%,87.843138%);fill-opacity:1;" d="M 7.9375 12.820312 L 9.261719 12.820312 C 9.625 12.820312 9.921875 13.113281 9.921875 13.480469 L 9.921875 16.789062 C 9.921875 17.152344 9.625 17.449219 9.261719 17.449219 L 7.9375 17.449219 C 7.574219 17.449219 7.277344 17.152344 7.277344 16.789062 L 7.277344 13.480469 C 7.277344 13.113281 7.574219 12.820312 7.9375 12.820312 Z M 7.9375 12.820312 "/>
<path style=" stroke:none;fill-rule:nonzero;fill:rgb(87.843138%,87.843138%,87.843138%);fill-opacity:1;" d="M 22.492188 12.820312 L 23.816406 12.820312 C 24.179688 12.820312 24.476562 13.113281 24.476562 13.480469 L 24.476562 16.789062 C 24.476562 17.152344 24.179688 17.449219 23.816406 17.449219 L 22.492188 17.449219 C 22.125 17.449219 21.832031 17.152344 21.832031 16.789062 L 21.832031 13.480469 C 21.832031 13.113281 22.125 12.820312 22.492188 12.820312 Z M 22.492188 12.820312 "/>
<path style=" stroke:none;fill-rule:nonzero;fill:rgb(87.843138%,87.843138%,87.843138%);fill-opacity:1;" d="M 8.601562 3.558594 C 5.917969 6.589844 6.113281 10.613281 8.382812 11.507812 C 8.828125 11.65625 9.289062 11.328125 9.289062 10.859375 C 9.261719 8.875 10.585938 8.875 10.585938 6.890625 C 10.585938 5.898438 9.59375 3.914062 8.601562 3.558594 Z M 8.601562 3.558594 "/>
<path style=" stroke:none;fill-rule:nonzero;fill:rgb(87.843138%,87.843138%,87.843138%);fill-opacity:1;" d="M 23.152344 3.558594 C 20.472656 6.589844 20.667969 10.613281 22.9375 11.507812 C 23.382812 11.65625 23.839844 11.328125 23.839844 10.859375 C 23.816406 8.875 25.140625 8.875 25.140625 6.890625 C 25.140625 5.898438 24.148438 3.914062 23.152344 3.558594 Z M 23.152344 3.558594 "/>
<path style=" stroke:none;fill-rule:nonzero;fill:rgb(87.843138%,87.843138%,87.843138%);fill-opacity:1;" d="M 23.152344 3.558594 C 20.472656 6.589844 20.667969 10.613281 22.9375 11.507812 C 23.382812 11.65625 23.839844 11.328125 23.839844 10.859375 C 23.816406 8.875 25.140625 8.875 25.140625 6.890625 C 25.140625 5.898438 24.148438 3.914062 23.152344 3.558594 Z M 23.152344 3.558594 "/>
</g>
</svg>
